src/assets/SubmitApp.svg

<svg fill="none" height="24" viewBox="0 0 24 24" width="24" xmlns="http://www.w3.org/2000/svg"><path clip-rule="evenodd" d="m12 0c-6.62742 0-12 5.37258-12 12 0 6.6274 5.37258 12 12 12 6.6274 0 12-5.3726 12-12 0-6.62742-5.3726-12-12-12zm-.5526 8.52173v2.92577h-2.9257c-.3842 0-.69565.3114-.69565.6956v.2355c0 .3842.31145.6957.69565.6957h2.9257v2.9257c0 .3842.3115.6956.6957.6956h.2355c.3842 0 .6956-.3114.6956-.6956v-2.9257h2.9258c.3842 0 .6956-.3115.6956-.6957v-.2355c0-.3842-.3114-.6956-.6956-.6956h-2.9258v-2.92577c0-.3842-.3114-.69565-.6956-.69565h-.2355c-.3842 0-.6957.31145-.6957.69565z" fill="#089c96" fill-rule="evenodd"/></svg>

<svg xmlns="http://www.w3.org/2000/svg" width="24" height="24" viewBox="0 0 24 24" fill="none">
  <path fill-rule="evenodd" clip-rule="evenodd" d="M12 0C5.37258 0 0 5.37258 0 12C0 18.6274 5.37258 24 12 24C18.6274 24 24 18.6274 24 12C24 5.37258 18.6274 0 12 0ZM11.4474 8.52173V11.4475H8.5217C8.1375 11.4475 7.82605 11.7589 7.82605 12.1431V12.3786C7.82605 12.7628 8.1375 13.0743 8.5217 13.0743H11.4474V16C11.4474 16.3842 11.7589 16.6956 12.1431 16.6956H12.3786C12.7628 16.6956 13.0742 16.3842 13.0742 16V13.0743H16C16.3842 13.0743 16.6956 12.7628 16.6956 12.3786V12.1431C16.6956 11.7589 16.3842 11.4475 16 11.4475H13.0742V8.52173C13.0742 8.13753 12.7628 7.82608 12.3786 7.82608H12.1431C11.7589 7.82608 11.4474 8.13753 11.4474 8.52173Z" fill="#089C96"/>
</svg>
